icon-svg/overseerr.svg

<svg xmlns="http://www.w3.org/2000/svg" viewBox="0 0 24 24"><path fill="#44739e" d="M12 2a10 10 0 1 0 10 10A10 10 0 0 0 12 2m1.25 17.188a5.9 5.9 0 0 1-2.622-.611 6.162 6.162 0 0 0 7.949-7.949 5.937 5.937 0 0 1-5.327 8.56m-.163-12.182c.047 0 .094.006.141.009l.152.011.141.016.149.019.138.022c.046.008.1.016.148.026l.135.028.145.034.133.035.142.04.13.041.139.047.128.047.136.054c.045.019.083.034.124.053l.133.059.122.059.128.066.119.064.125.072.115.07.122.078.11.074q.06.04.118.084l.107.079.114.089.1.084.11.1.1.089q.052.048.105.1l.094.093.1.1.09.1.095.11.085.1.09.115.08.1c.026.031.056.079.084.119l.075.108.079.123.07.112.074.128.064.115.068.132.058.117.062.138.053.118c.017.04.037.1.056.143s.032.08.046.12l.05.147c.016.047.028.081.04.122l.044.153c.015.053.023.08.033.121s.025.1.037.158l.027.121.03.166.021.119.022.175c0 .038.01.076.014.114q.01.1.015.2c0 .03.006.061.007.092q.008.15.008.3a5.834 5.834 0 0 1-5.834 5.834q-.15.002-.3-.008l-.1-.007-.194-.015c-.04 0-.079-.01-.118-.015l-.171-.021-.124-.022-.16-.029-.126-.028-.154-.036c-.054-.013-.083-.023-.125-.034l-.149-.043-.125-.041c-.048-.016-.1-.031-.143-.049l-.124-.047-.139-.055q-.062-.026-.122-.054c-.04-.018-.09-.039-.134-.06l-.12-.06-.13-.067-.117-.065-.125-.073-.114-.071-.121-.077-.111-.077-.117-.083-.106-.082-.113-.088a2 2 0 0 1-.1-.087c-.031-.03-.072-.061-.107-.093l-.1-.092-.1-.1-.1-.1a2 2 0 0 0-.1-.1l-.091-.1a5 5 0 0 1-.178-.212 5 5 0 0 1-.169-.221l-.081-.115-.077-.113-.076-.119-.071-.117a8 8 0 0 1-.2-.371l-.06-.124-.059-.13-.054-.127-.053-.133q-.026-.067-.047-.13l-.047-.137-.041-.133-.04-.139a4 4 0 0 1-.068-.278l-.029-.138-.026-.145-.022-.14-.019-.147-.016-.143c-.005-.043-.008-.1-.011-.149L7 13.084v-.251a5.8 5.8 0 0 1 .257-1.717 2.917 2.917 0 1 0 3.859-3.859A5.8 5.8 0 0 1 12.833 7c.085 0 .167 0 .254.006M4.5 12a.834.834 0 0 1-1.667 0A9.167 9.167 0 0 1 12 2.833.834.834 0 0 1 12 4.5 7.5 7.5 0 0 0 4.5 12"/></svg>

<?xml version="1.0" encoding="UTF-8"?>
<svg width="24px" fill="#44739e" height="24px" viewBox="0 0 24 24" version="1.1" xmlns="http://www.w3.org/2000/svg" xmlns:xlink="http://www.w3.org/1999/xlink">
            <path d="M 12,2 A 10,10 0 1 0 22,12 10,10 0 0 0 12,2 Z m 1.25,17.188 a 5.9,5.9 0 0 1 -2.622,-0.611 6.162,6.162 0 0 0 7.949,-7.949 5.937,5.937 0 0 1 -5.327,8.56 z M 13.087,7.006 c 0.047,0 0.094,0.006 0.141,0.009 l 0.152,0.011 0.141,0.016 0.149,0.019 c 0.046,0.006 0.092,0.014 0.138,0.022 0.046,0.008 0.1,0.016 0.148,0.026 l 0.135,0.028 0.145,0.034 0.133,0.035 0.142,0.04 0.13,0.041 0.139,0.047 0.128,0.047 c 0.045,0.017 0.091,0.035 0.136,0.054 0.045,0.019 0.083,0.034 0.124,0.053 l 0.133,0.059 0.122,0.059 0.128,0.066 c 0.04,0.021 0.08,0.042 0.119,0.064 l 0.125,0.072 0.115,0.07 c 0.041,0.025 0.081,0.051 0.122,0.078 l 0.11,0.074 c 0.04,0.027 0.079,0.055 0.118,0.084 0.039,0.029 0.072,0.052 0.107,0.079 l 0.114,0.089 0.1,0.084 0.11,0.1 c 0.033,0.029 0.066,0.058 0.1,0.089 0.034,0.031 0.07,0.066 0.105,0.1 l 0.094,0.093 0.1,0.1 0.09,0.1 c 0.032,0.036 0.064,0.073 0.095,0.11 l 0.085,0.1 c 0.03,0.037 0.06,0.076 0.09,0.115 0.03,0.039 0.054,0.069 0.08,0.1 0.026,0.031 0.056,0.079 0.084,0.119 0.028,0.04 0.051,0.072 0.075,0.108 0.024,0.036 0.053,0.082 0.079,0.123 0.026,0.041 0.048,0.075 0.07,0.112 l 0.074,0.128 c 0.021,0.038 0.043,0.076 0.064,0.115 l 0.068,0.132 c 0.019,0.039 0.04,0.078 0.058,0.117 0.018,0.039 0.042,0.092 0.062,0.138 0.02,0.046 0.036,0.078 0.053,0.118 0.017,0.04 0.037,0.1 0.056,0.143 0.019,0.043 0.032,0.08 0.046,0.12 0.014,0.04 0.034,0.1 0.05,0.147 0.016,0.047 0.028,0.081 0.04,0.122 0.012,0.041 0.029,0.1 0.044,0.153 0.015,0.053 0.023,0.08 0.033,0.121 0.01,0.041 0.025,0.1 0.037,0.158 0.012,0.058 0.019,0.081 0.027,0.121 0.008,0.04 0.02,0.111 0.03,0.166 0.007,0.04 0.015,0.079 0.021,0.119 0.008,0.058 0.015,0.117 0.022,0.175 0,0.038 0.01,0.076 0.014,0.114 0.007,0.066 0.011,0.134 0.015,0.2 0,0.03 0.006,0.061 0.007,0.092 0.005,0.1 0.008,0.2 0.008,0.3 a 5.834,5.834 0 0 1 -5.834,5.834 v 0 c -0.1,0 -0.2,0 -0.3,-0.008 l -0.1,-0.007 c -0.065,-0.005 -0.13,-0.009 -0.194,-0.015 -0.04,0 -0.079,-0.01 -0.118,-0.015 C 12.064,18.616 12.007,18.61 11.95,18.602 L 11.826,18.58 C 11.772,18.571 11.719,18.562 11.666,18.551 11.613,18.54 11.582,18.532 11.54,18.523 11.498,18.514 11.44,18.5 11.386,18.487 11.332,18.474 11.303,18.464 11.261,18.453 L 11.112,18.41 10.987,18.369 c -0.048,-0.016 -0.1,-0.031 -0.143,-0.049 L 10.72,18.273 10.581,18.218 c -0.041,-0.017 -0.082,-0.036 -0.122,-0.054 -0.04,-0.018 -0.09,-0.039 -0.134,-0.06 l -0.12,-0.06 -0.13,-0.067 -0.117,-0.065 C 9.916,17.888 9.874,17.864 9.833,17.839 9.792,17.814 9.757,17.792 9.719,17.768 9.681,17.744 9.638,17.717 9.598,17.691 L 9.487,17.614 9.37,17.531 9.264,17.449 C 9.226,17.42 9.188,17.391 9.151,17.361 9.114,17.331 9.082,17.304 9.051,17.274 9.02,17.244 8.979,17.213 8.944,17.181 8.909,17.149 8.877,17.12 8.844,17.089 l -0.1,-0.1 -0.1,-0.1 c -0.032,-0.034 -0.065,-0.067 -0.1,-0.1 l -0.091,-0.1 C 8.422,16.654 8.391,16.618 8.361,16.582 8.331,16.546 8.303,16.512 8.275,16.477 8.247,16.442 8.216,16.403 8.188,16.366 8.16,16.329 8.133,16.293 8.106,16.256 L 8.025,16.141 C 7.999,16.104 7.974,16.066 7.948,16.028 L 7.872,15.909 7.801,15.792 C 7.777,15.751 7.754,15.71 7.731,15.669 7.708,15.628 7.687,15.589 7.665,15.548 7.643,15.507 7.622,15.464 7.601,15.421 7.58,15.378 7.56,15.339 7.541,15.297 7.522,15.255 7.501,15.211 7.482,15.167 L 7.428,15.04 C 7.41,14.996 7.393,14.952 7.375,14.907 7.357,14.862 7.343,14.82 7.328,14.777 7.313,14.734 7.296,14.686 7.281,14.64 7.266,14.594 7.253,14.552 7.24,14.507 7.227,14.462 7.213,14.414 7.2,14.368 7.187,14.322 7.176,14.278 7.165,14.233 7.154,14.188 7.142,14.138 7.132,14.09 7.122,14.042 7.112,13.998 7.103,13.952 7.094,13.906 7.085,13.852 7.077,13.807 7.069,13.762 7.061,13.714 7.055,13.667 7.049,13.62 7.042,13.567 7.036,13.52 7.03,13.473 7.025,13.42 7.02,13.377 7.015,13.334 7.012,13.277 7.009,13.228 7.006,13.179 7.002,13.128 7,13.084 7,13 7,12.918 7,12.833 A 5.829,5.829 0 0 1 7.257,11.116 2.917,2.917 0 1 0 11.116,7.257 5.834,5.834 0 0 1 12.833,7 C 12.918,7 13,7 13.087,7.006 Z M 4.5,12 A 0.834,0.834 0 0 1 2.833,12 9.167,9.167 0 0 1 12,2.833 0.834,0.834 0 0 1 12,4.5 7.5,7.5 0 0 0 4.5,12 Z"/>

</svg>
